src/img/logo.svg

<svg width="117" height="29" viewBox="0 0 117 29" fill="none" xmlns="http://www.w3.org/2000/svg">
<path d="M47.5789 17.6124H43.8726L38.2909 9.70759V17.6124H35.0261V2.0174H38.2909V9.56984L43.8095 2.0174H47.2852L41.672 9.50595L47.5789 17.6124Z" fill="#333333"/>
<path d="M59.9641 11.6281C59.9641 13.5697 59.4586 15.0879 58.4475 16.183C57.4364 17.278 56.0292 17.826 54.2248 17.826C53.0945 17.826 52.0972 17.5755 51.234 17.0744C50.3707 16.5733 49.7065 15.8526 49.2433 14.9142C48.7802 13.9759 48.5486 12.8809 48.5486 11.6291C48.5486 9.68063 49.0502 8.16635 50.0544 7.08529C51.0585 6.00423 52.4697 5.4642 54.2879 5.4642C55.4182 5.4642 56.4155 5.71276 57.2787 6.21086C58.142 6.70897 58.8062 7.42369 59.2694 8.35501C59.7325 9.28534 59.9641 10.3764 59.9641 11.6281ZM51.8233 11.6281C51.8233 12.809 52.0144 13.7014 52.3968 14.3053C52.7791 14.9102 53.4029 15.2117 54.2662 15.2117C55.1226 15.2117 55.7385 14.9112 56.1139 14.3103C56.4894 13.7094 56.6776 12.815 56.6776 11.6271C56.6776 10.4463 56.4884 9.56085 56.109 8.97091C55.7296 8.38097 55.1088 8.0855 54.2445 8.0855C53.3882 8.0855 52.7703 8.37897 52.3909 8.96592C52.0125 9.55386 51.8233 10.4413 51.8233 11.6281Z" fill="#333333"/>
<path d="M77.4559 17.6124H74.4542V8.21529L74.2857 8.8771C73.9063 10.3774 73.5663 11.5124 73.2638 12.28L71.1796 17.6124H68.8943L66.7775 12.2361C66.476 11.4535 66.1527 10.3554 65.8088 8.93999L65.6088 8.21429V17.6124H62.6179V5.68682H67.0406L69.0628 10.7747C69.2737 11.3227 69.4678 11.9516 69.6472 12.6633C69.8265 13.374 69.9477 13.9829 70.0108 14.487C70.2424 13.42 70.4227 12.6543 70.5528 12.1882C70.6829 11.722 70.8248 11.2938 70.9795 10.9025C71.1342 10.5112 71.8329 8.77229 73.0756 5.68582H77.4569V17.6124H77.4559Z" fill="#333333"/>
<path d="M87.0179 17.6124H83.754V4.76946H79.5728V2.0174H91.1992V4.76946H87.0179V17.6124Z" fill="#333333"/>
<path d="M97.9069 17.8261C96.0108 17.8261 94.5297 17.296 93.4624 16.2369C92.3952 15.1778 91.8621 13.6765 91.8621 11.735C91.8621 9.73656 92.3548 8.19133 93.3412 7.10029C94.3277 6.00825 95.6915 5.46323 97.4328 5.46323C99.0963 5.46323 100.392 5.94337 101.319 6.90364C102.245 7.86392 102.709 9.19054 102.709 10.8825V12.4617H95.116C95.1515 13.386 95.4215 14.1077 95.9271 14.6268C96.4326 15.1459 97.1412 15.4054 98.0547 15.4054C98.7632 15.4054 99.4343 15.3305 100.066 15.1818C100.698 15.0321 101.358 14.7945 102.046 14.4671V16.9846C101.484 17.2691 100.884 17.4807 100.245 17.6194C99.6058 17.7572 98.8263 17.8261 97.9069 17.8261ZM97.4545 7.77708C96.7736 7.77708 96.2395 7.99569 95.8541 8.4329C95.4678 8.87012 95.2471 9.491 95.1909 10.2946H99.6984C99.6846 9.491 99.4777 8.87012 99.0776 8.4329C98.6755 7.99668 98.1355 7.77708 97.4545 7.77708Z" fill="#333333"/>
<path d="M107.733 11.5214L103.942 5.68582H107.586L109.872 9.48301L112.178 5.68582H115.822L111.988 11.5214L116.001 17.6124H112.347L109.873 13.5268L107.387 17.6124H103.744L107.733 11.5214Z" fill="#333333"/>
<path d="M26.8763 18.1036C26.4319 14.9013 24.9567 12.0354 22.7995 9.86133C21.8012 8.85513 20.6561 7.99767 19.4016 7.32288C21.5716 8.91802 22.9828 11.5074 22.9828 14.4311C22.9828 14.4711 22.9818 14.51 22.9818 14.5489C22.9601 16.2189 22.4782 17.7771 21.6574 19.0978C20.9518 20.5691 20.0077 21.9018 18.8764 23.0437C16.7449 25.1948 13.9481 26.6682 10.8252 27.1224C10.1551 27.2202 9.47023 27.2711 8.77351 27.2711C8.31429 27.2711 7.86098 27.2482 7.4126 27.2052C9.29285 28.2554 11.4313 28.8892 13.7067 28.9861C13.9087 28.995 14.1107 29 14.3147 29C19.8057 29 24.5733 25.8686 26.9739 21.2719C27.0025 20.8976 27.0172 20.5202 27.0172 20.1379C27.0172 19.4471 26.969 18.7684 26.8763 18.1036Z" fill="url(#paint0_linear)"/>
<path d="M14.3157 23.2084C13.9974 23.2084 13.684 23.1904 13.3746 23.1565C12.4236 23.0527 11.52 22.7932 10.6863 22.4029C8.93611 21.7191 7.35249 20.6969 6.01227 19.4162C3.70728 17.2122 2.12563 14.2415 1.66345 10.9065C1.57082 10.2417 1.52253 9.56188 1.52253 8.87112C1.52253 8.55269 1.53337 8.23626 1.55406 7.92282C0.720368 9.57885 0.192164 11.4186 0.0433601 13.3661C0.0147818 13.7404 0 14.1177 0 14.5C0 19.9732 2.99382 24.7367 7.4126 27.2052C7.86098 27.2482 8.31429 27.2711 8.77351 27.2711C9.47023 27.2711 10.1551 27.2192 10.8252 27.1224C13.9472 26.6682 16.7449 25.1948 18.8764 23.0437C20.0077 21.9018 20.9518 20.5691 21.6574 19.0978C20.123 21.5673 17.4091 23.2084 14.3157 23.2084Z" fill="url(#paint1_linear)"/>
<path d="M20.5144 1.42645C20.3124 1.41747 20.1103 1.41248 19.9064 1.41248C19.2096 1.41248 18.5247 1.46438 17.8546 1.56121C14.5543 2.04135 11.6177 3.66145 9.44573 6.01523C8.36863 7.18214 7.48073 8.52972 6.82935 10.0081C8.23461 7.57144 10.7662 5.88247 13.7009 5.67384C13.9039 5.65887 14.1099 5.65188 14.3168 5.65188C16.2168 5.65188 17.9739 6.27177 19.4018 7.32189C20.6573 7.99668 21.8014 8.85414 22.7997 9.86034C24.9568 12.0344 26.432 14.9013 26.8765 18.1026C26.9691 18.7674 27.0174 19.4472 27.0174 20.1379C27.0174 20.5192 27.0026 20.8976 26.974 21.2719C27.8925 19.514 28.4641 17.5416 28.5981 15.4483C28.6178 15.1349 28.6296 14.8185 28.6296 14.5C28.6296 8.74134 25.3155 3.76726 20.5144 1.42645Z" fill="url(#paint2_linear)"/>
<path d="M15.6756 0.0658818C15.2272 0.0229588 14.7739 0 14.3147 0C8.74585 0 3.92106 3.22023 1.554 7.92279C1.53429 8.23623 1.52246 8.55266 1.52246 8.87109C1.52246 9.56185 1.57173 10.2416 1.66338 10.9064C2.12556 14.2415 3.7082 17.2121 6.0122 19.4162C7.35242 20.6979 8.93605 21.7191 10.6862 22.4028C7.75547 21.0323 5.70966 18.0526 5.65152 14.5819C5.65054 14.5309 5.64955 14.48 5.64955 14.4291C5.64955 12.817 6.07921 11.3057 6.82816 10.0071C7.47954 8.52871 8.36842 7.18112 9.44454 6.01421C11.6165 3.66044 14.5531 2.04034 17.8534 1.5602C18.5235 1.46238 19.2084 1.41147 19.9052 1.41147C20.1091 1.41147 20.3112 1.41646 20.5132 1.42544C19.0261 0.701742 17.3952 0.229588 15.6756 0.0658818Z" fill="url(#paint3_linear)"/>
<path d="M35.2209 26.7446V22.2003H38.7586V26.7446H38.2522V22.6671H35.7263V26.7446H35.2209Z" fill="#333333"/>
<path d="M39.9443 27.7842V23.3888H40.4383V24.0644C40.7718 23.5672 41.1943 23.3175 41.7069 23.3175C42.1295 23.3175 42.4992 23.4769 42.8161 23.7948C43.1319 24.1126 43.2904 24.5385 43.2904 25.0704C43.2904 25.5938 43.1319 26.0166 42.8161 26.3365C42.5002 26.6565 42.1305 26.817 41.7069 26.817C41.186 26.817 40.7625 26.5788 40.4383 26.1026V27.7842H39.9443ZM41.6179 26.368C41.9513 26.368 42.2289 26.2505 42.4515 26.0145C42.6732 25.7785 42.785 25.4617 42.785 25.063C42.785 24.678 42.6721 24.3654 42.4453 24.1252C42.2185 23.885 41.9431 23.7644 41.6189 23.7644C41.2989 23.7644 41.0183 23.8881 40.779 24.1347C40.5398 24.3812 40.4197 24.6927 40.4197 25.0693C40.4197 25.4459 40.5388 25.7564 40.779 26.0008C41.0172 26.2463 41.2968 26.368 41.6179 26.368Z" fill="#333333"/>
<path d="M46.9502 26.3072C46.6167 26.6512 46.2046 26.8233 45.7126 26.8233C45.2207 26.8233 44.8117 26.6523 44.4855 26.3103C44.1582 25.9683 43.9956 25.555 43.9956 25.0704C43.9956 24.5899 44.1613 24.1777 44.4927 23.8336C44.8241 23.4895 45.2352 23.3175 45.7261 23.3175C46.217 23.3175 46.6281 23.4885 46.9564 23.8305C47.2857 24.1724 47.4504 24.5857 47.4504 25.0704C47.4504 25.5508 47.2837 25.9631 46.9502 26.3072ZM45.7261 26.3753C46.0803 26.3753 46.3723 26.2495 46.6012 25.9987C46.8301 25.748 46.944 25.4386 46.944 25.0704C46.944 24.7064 46.8249 24.3969 46.5877 24.142C46.3506 23.8871 46.0585 23.7591 45.7126 23.7591C45.3574 23.7591 45.0675 23.886 44.8407 24.1389C44.6139 24.3917 44.501 24.7022 44.501 25.0704C44.501 25.4344 44.618 25.7428 44.8531 25.9956C45.0892 26.2484 45.3802 26.3753 45.7261 26.3753Z" fill="#333333"/>
<path d="M48.3411 26.7446V23.3878H48.8092L50.0467 25.1532L51.2843 23.3878H51.7586V26.7446H51.2573V24.1861L50.0332 25.8876L48.8216 24.1861V26.7446H48.3411Z" fill="#333333"/>
<path d="M52.8604 26.7446V23.3878H53.3543V24.6476H54.2387C54.6229 24.6476 54.9378 24.7305 55.1811 24.8973C55.4245 25.0641 55.5467 25.3158 55.5467 25.6536C55.5467 25.9872 55.4338 26.2516 55.207 26.4488C54.9802 26.646 54.6768 26.7446 54.2967 26.7446H52.8604ZM53.3533 26.304H54.2501C54.5018 26.304 54.6975 26.2495 54.8363 26.1414C54.9751 26.0334 55.0444 25.875 55.0444 25.6673C55.0444 25.4763 54.973 25.3305 54.8301 25.2288C54.6872 25.127 54.4873 25.0767 54.2305 25.0767H53.3523V26.304H53.3533ZM56.1411 26.7446V23.3878H56.6351V26.7446H56.1411Z" fill="#333333"/>
<path d="M57.7371 26.7446V23.3878H58.231V26.303H59.8466V23.3878H60.3406V26.303H61.9561V23.3878H62.4563V26.7446H57.7371Z" fill="#333333"/>
<path d="M63.3977 26.797C63.2693 26.797 63.1367 26.7792 63 26.7446L63.058 26.3166C63.1564 26.347 63.2351 26.3617 63.2951 26.3617C63.3894 26.3617 63.466 26.3502 63.5261 26.326C63.5862 26.3019 63.6514 26.24 63.7218 26.1383C63.7922 26.0365 63.8471 25.8928 63.8854 25.7061C63.9238 25.5204 63.9569 25.2561 63.9849 24.9141C64.0128 24.5721 64.0263 24.1567 64.0263 23.6679V23.3888H66.3719V26.7456H65.8779V23.8305H64.4933V23.9081C64.4933 24.4189 64.4737 24.8543 64.4353 25.213C64.397 25.5729 64.3484 25.854 64.2914 26.0575C64.2334 26.261 64.1537 26.4194 64.0511 26.5316C63.9486 26.6439 63.8492 26.7163 63.7529 26.7488C63.6566 26.7813 63.5385 26.797 63.3977 26.797Z" fill="#333333"/>
<path d="M68.9227 26.8233C68.4566 26.8233 68.0652 26.6596 67.7462 26.3334C67.4283 26.0071 67.2688 25.5854 67.2688 25.0704C67.2688 24.5815 67.42 24.1672 67.7234 23.8273C68.0269 23.4874 68.4049 23.3175 68.8584 23.3175C69.3328 23.3175 69.7087 23.4864 69.9862 23.8242C70.2638 24.1619 70.4025 24.5857 70.4025 25.0966C70.4025 25.1616 70.4005 25.2204 70.3963 25.2718H67.768C67.8021 25.6138 67.9295 25.8855 68.1491 26.0869C68.3686 26.2883 68.6306 26.389 68.934 26.389C69.3317 26.389 69.6797 26.2306 69.979 25.9148L70.2865 26.1939C69.9158 26.6135 69.4612 26.8233 68.9227 26.8233ZM67.769 24.869H69.9034C69.8733 24.5448 69.7677 24.2752 69.5865 24.0602C69.4052 23.8462 69.1577 23.7392 68.846 23.7392C68.5643 23.7392 68.323 23.8451 68.1221 24.057C67.9202 24.2689 67.8032 24.5396 67.769 24.869Z" fill="#333333"/>
<path d="M71.2683 26.7446V23.3878H71.7623V24.8354H73.6719V23.3878H74.1658V26.7446H73.6719V25.277H71.7623V26.7446H71.2683Z" fill="#333333"/>
<path d="M75.2678 26.7446V23.3878H75.7618V24.8354H77.6715V23.3878H78.1655V26.7446H77.6715V25.277H75.7618V26.7446H75.2678Z" fill="#333333"/>
<path d="M79.2671 26.7446V23.3878H79.7611V24.6476H80.6455C81.0297 24.6476 81.3445 24.7305 81.5879 24.8973C81.8312 25.0641 81.9535 25.3158 81.9535 25.6536C81.9535 25.9872 81.8406 26.2516 81.6138 26.4488C81.387 26.646 81.0835 26.7446 80.7035 26.7446H79.2671ZM79.7611 26.304H80.6579C80.9096 26.304 81.1053 26.2495 81.2441 26.1414C81.3828 26.0334 81.4522 25.875 81.4522 25.6673C81.4522 25.4763 81.3808 25.3305 81.2378 25.2288C81.0949 25.127 80.8951 25.0767 80.6382 25.0767H79.76V26.304H79.7611ZM82.5489 26.7446V23.3878H83.0429V26.7446H82.5489Z" fill="#333333"/>
<path d="M84.1448 26.7446V23.3878H84.6388V26.0428L86.6064 23.3878H87.0869V26.7446H86.5929V24.0896L84.6191 26.7446H84.1448ZM86.1994 22.687C86.0348 22.8339 85.8349 22.9073 85.5998 22.9073C85.3647 22.9073 85.1648 22.8339 85.0002 22.687C84.8355 22.5402 84.734 22.3493 84.6957 22.1153L85.0354 22.044C85.1203 22.3472 85.3088 22.4982 85.5998 22.4982C85.8908 22.4982 86.0783 22.3472 86.1642 22.044L86.5039 22.1153C86.4645 22.3493 86.363 22.5402 86.1994 22.687Z" fill="#333333"/>
<path d="M90.1121 26.7446V23.3878H90.606V25.3221L92.4204 23.3878H93.0293L91.6437 24.8427L93.0666 26.7446H92.4836L91.304 25.2068L90.605 25.9337V26.7456H90.1121V26.7446Z" fill="#333333"/>
<path d="M93.5854 26.797C93.457 26.797 93.3244 26.7792 93.1877 26.7446L93.2457 26.3166C93.3441 26.347 93.4228 26.3617 93.4829 26.3617C93.5771 26.3617 93.6538 26.3502 93.7138 26.326C93.7739 26.3019 93.8391 26.24 93.9096 26.1383C93.98 26.0365 94.0349 25.8928 94.0732 25.7061C94.1115 25.5204 94.1446 25.2561 94.1726 24.9141C94.2006 24.5721 94.214 24.1567 94.214 23.6679V23.3888H96.5597V26.7456H96.0657V23.8305H94.6811V23.9081C94.6811 24.4189 94.6614 24.8543 94.6231 25.213C94.5848 25.5729 94.5361 25.854 94.4791 26.0575C94.4211 26.261 94.3414 26.4194 94.2389 26.5316C94.1364 26.6439 94.0369 26.7163 93.9406 26.7488C93.8453 26.7813 93.7273 26.797 93.5854 26.797Z" fill="#333333"/>
<path d="M97.6628 26.7446V23.3878H98.1568V26.0428L100.124 23.3878H100.605V26.7446H100.111V24.0896L98.1371 26.7446H97.6628Z" fill="#333333"/>
<path d="M101.707 26.7446V23.3878H102.201V24.8354H104.11V23.3878H104.604V26.7446H104.11V25.277H102.201V26.7446H101.707Z" fill="#333333"/>
<path d="M105.706 26.7446V23.3878H106.2V26.0428L108.168 23.3878H108.648V26.7446H108.154V24.0896L106.18 26.7446H105.706Z" fill="#333333"/>
<path d="M109.751 26.7446V23.3878H110.245V24.8354H112.155V23.3878H112.649V26.7446H112.155V25.277H110.245V26.7446H109.751Z" fill="#333333"/>
<path d="M113.751 26.7446V23.3878H116V23.8294H114.244V26.7446H113.751Z" fill="#333333"/>
<defs>
<linearGradient id="paint0_linear" x1="12.5735" y1="27.7664" x2="24.0827" y2="13.7627" gradientUnits="userSpaceOnUse">
<stop offset="0.0284145" stop-color="#A1D4C5"/>
<stop offset="0.3818" stop-color="#62BDA4"/>
<stop offset="0.5727" stop-color="#4CA98C"/>
<stop offset="0.8099" stop-color="#309676"/>
<stop offset="0.9481" stop-color="#238F6E"/>
</linearGradient>
<linearGradient id="paint1_linear" x1="0" y1="17.597" x2="21.6569" y2="17.597" gradientUnits="userSpaceOnUse">
<stop offset="0.0141857" stop-color="#7698CC"/>
<stop offset="0.3819" stop-color="#4B6DB1"/>
<stop offset="0.9602" stop-color="#305893"/>
</linearGradient>
<linearGradient id="paint2_linear" x1="28.1602" y1="14.3488" x2="11.2517" y2="4.49788" gradientUnits="userSpaceOnUse">
<stop offset="0.0141857" stop-color="#7698CC"/>
<stop offset="0.3819" stop-color="#4B6DB1"/>
<stop offset="0.9602" stop-color="#305893"/>
</linearGradient>
<linearGradient id="paint3_linear" x1="18.79" y1="1.92055" x2="5.13517" y2="15.2926" gradientUnits="userSpaceOnUse">
<stop offset="0.035568" stop-color="#F2B065"/>
<stop offset="0.0927934" stop-color="#F2A951"/>
<stop offset="0.1558" stop-color="#F2A341"/>
<stop offset="0.2208" stop-color="#F2A037"/>
<stop offset="0.29" stop-color="#F29E34"/>
<stop offset="0.9366" stop-color="#E1821E"/>
</linearGradient>
</defs>
</svg>

<svg width="117" height="29" viewBox="0 0 117 29" xmlns="http://www.w3.org/2000/svg" fill="none"><path d="M47.579 17.612h-3.706l-5.582-7.905v7.905h-3.265v-15.595h3.265v7.552l5.519-7.552h3.476l-5.613 7.489 5.907 8.106zM59.964 11.628c0 1.942-.506 3.46-1.517 4.555-1.011 1.095-2.418 1.643-4.223 1.643-1.13 0-2.128-.25-2.991-.752-.863-.501-1.528-1.222-1.991-2.16-.463-.938-.695-2.033-.695-3.285 0-1.948.502-3.463 1.506-4.544 1.004-1.081 2.415-1.621 4.233-1.621 1.13 0 2.128.249 2.991.747s1.527 1.213 1.991 2.144c.463.93.695 2.021.695 3.273zm-8.141 0c0 1.181.191 2.073.573 2.677.382.605 1.006.906 1.869.906.856 0 1.472-.301 1.848-.901.376-.601.564-1.495.564-2.683 0-1.181-.189-2.066-.569-2.656-.379-.59-1-.885-1.864-.885-.856 0-1.474.293-1.854.88-.378.588-.568 1.475-.568 2.662zM77.456 17.612h-3.002v-9.397l-.168.662c-.379 1.5-.719 2.635-1.022 3.403l-2.084 5.332h-2.285l-2.117-5.376c-.302-.783-.625-1.881-.969-3.296l-.2-.726v9.398h-2.991v-11.926h4.423l2.022 5.088c.211.548.405 1.177.584 1.889.179.711.3 1.32.364 1.824.232-1.067.412-1.833.542-2.299.13-.466.272-.894.427-1.286.155-.391.853-2.13 2.096-5.217h4.381v11.927h-.001zM87.018 17.612h-3.264v-12.843h-4.181v-2.752h11.626v2.752h-4.181v12.843zM97.907 17.826c-1.896 0-3.377-.53-4.444-1.589-1.067-1.059-1.6-2.56-1.6-4.502 0-1.998.493-3.544 1.479-4.635.986-1.092 2.35-1.637 4.092-1.637 1.663 0 2.959.48 3.886 1.44.926.96 1.39 2.287 1.39 3.979v1.579h-7.593c.035.924.305 1.646.811 2.165.505.519 1.214.779 2.128.779.709 0 1.38-.075 2.011-.224.632-.15 1.292-.387 1.98-.715v2.518c-.562.285-1.162.496-1.801.635-.639.138-1.419.207-2.338.207zm-.452-10.049c-.681 0-1.215.219-1.6.656-.386.437-.607 1.058-.663 1.862h4.508c-.014-.804-.221-1.424-.621-1.862-.402-.436-.942-.656-1.623-.656zM107.733 11.521l-3.791-5.836h3.644l2.286 3.797 2.306-3.797h3.644l-3.834 5.836 4.013 6.091h-3.654l-2.474-4.086-2.486 4.086h-3.643l3.989-6.091z" fill="#333"/><path d="M26.876 18.104c-.444-3.202-1.92-6.068-4.077-8.242-.998-1.006-2.143-1.864-3.398-2.538 2.17 1.595 3.581 4.185 3.581 7.108l-.001.118c-.022 1.67-.504 3.228-1.324 4.549-.706 1.471-1.65 2.804-2.781 3.946-2.131 2.151-4.928 3.624-8.051 4.079-.67.098-1.355.149-2.052.149-.459 0-.913-.023-1.361-.066 1.88 1.05 4.019 1.684 6.294 1.781l.608.014c5.491 0 10.259-3.131 12.659-7.728.029-.374.043-.752.043-1.134 0-.691-.048-1.369-.141-2.034z" fill="url(#a)"/><path d="M14.316 23.208c-.318 0-.632-.018-.941-.052-.951-.104-1.855-.363-2.688-.754-1.75-.684-3.334-1.706-4.674-2.987-2.305-2.204-3.887-5.175-4.349-8.51-.093-.665-.141-1.345-.141-2.035 0-.318.011-.635.032-.948-.834 1.656-1.362 3.496-1.511 5.443-.029.374-.043.752-.043 1.134 0 5.473 2.994 10.237 7.413 12.705.448.043.902.066 1.361.066.697 0 1.382-.052 2.052-.149 3.122-.454 5.92-1.928 8.051-4.079 1.131-1.142 2.075-2.475 2.781-3.946-1.534 2.47-4.248 4.111-7.342 4.111z" fill="url(#b)"/><path d="M20.514 1.426l-.608-.014c-.697 0-1.382.052-2.052.149-3.3.48-6.237 2.1-8.409 4.454-1.077 1.167-1.965 2.514-2.616 3.993 1.405-2.437 3.937-4.126 6.872-4.334.203-.015.409-.022.616-.022 1.9 0 3.657.62 5.085 1.67 1.255.675 2.4 1.532 3.398 2.538 2.157 2.174 3.632 5.041 4.077 8.242.093.665.141 1.345.141 2.035 0 .381-.015.76-.043 1.134.918-1.758 1.49-3.73 1.624-5.824.02-.313.032-.63.032-.948 0-5.759-3.314-10.733-8.115-13.074z" fill="url(#c)"/><path d="M15.676.066c-.448-.043-.902-.066-1.361-.066-5.569 0-10.394 3.22-12.761 7.923-.02.313-.032.63-.032.948 0 .691.049 1.371.141 2.035.462 3.335 2.045 6.306 4.349 8.51 1.34 1.282 2.924 2.303 4.674 2.987-2.931-1.37-4.977-4.35-5.035-7.821l-.002-.153c0-1.612.43-3.123 1.179-4.422.651-1.478 1.54-2.826 2.616-3.993 2.172-2.354 5.109-3.974 8.409-4.454.67-.098 1.355-.149 2.052-.149l.608.014c-1.487-.724-3.118-1.196-4.838-1.36z" fill="url(#d)"/><path d="M35.221 26.745v-4.544h3.538v4.544h-.506v-4.077h-2.526v4.077h-.505zM39.944 27.784v-4.395h.494v.676c.334-.497.756-.747 1.269-.747.423 0 .792.159 1.109.477.316.318.474.744.474 1.276 0 .523-.158.946-.474 1.266-.316.32-.686.48-1.109.48-.521 0-.944-.238-1.269-.714v1.682h-.494zm1.674-1.416c.333 0 .611-.117.834-.353.222-.236.333-.553.333-.952 0-.385-.113-.698-.34-.938-.227-.24-.502-.361-.826-.361-.32 0-.601.124-.84.37-.239.247-.359.558-.359.935s.119.687.359.932c.238.245.518.367.839.367zM46.95 26.307c-.334.344-.746.516-1.238.516s-.901-.171-1.227-.513c-.327-.342-.49-.755-.49-1.24 0-.48.166-.893.497-1.237.331-.344.742-.516 1.233-.516.491 0 .902.171 1.23.513.329.342.494.755.494 1.24 0 .48-.167.893-.5 1.237zm-1.224.068c.354 0 .646-.126.875-.377.229-.251.343-.56.343-.928 0-.364-.119-.674-.356-.928-.237-.255-.529-.383-.875-.383-.355 0-.645.127-.872.38-.227.253-.34.563-.34.931 0 .364.117.672.352.925.236.253.527.38.873.38zM48.341 26.745v-3.357h.468l1.238 1.765 1.238-1.765h.474v3.357h-.501v-2.558l-1.224 1.701-1.212-1.701v2.558h-.48zM52.86 26.745v-3.357h.494v1.26h.884c.384 0 .699.083.942.25.243.167.366.418.366.756 0 .334-.113.598-.34.795-.227.197-.53.296-.91.296h-1.436zm.493-.441h.897c.252 0 .447-.054.586-.163.139-.108.208-.266.208-.474 0-.191-.071-.337-.214-.439-.143-.102-.343-.152-.6-.152h-.878v1.227h.001zm2.788.441v-3.357h.494v3.357h-.494zM57.737 26.745v-3.357h.494v2.915h1.616v-2.915h.494v2.915h1.615v-2.915h.5v3.357h-4.719zM63.398 26.797c-.128 0-.261-.018-.398-.052l.058-.428.237.045.231-.036c.06-.024.125-.086.196-.188.07-.102.125-.245.164-.432.038-.186.072-.45.1-.792.028-.342.041-.757.041-1.246v-.279h2.346v3.357h-.494v-2.915h-1.385v.078c0 .511-.02.946-.058 1.305-.038.36-.087.641-.144.845-.058.203-.138.362-.24.474-.103.112-.202.185-.298.217-.096.033-.214.048-.355.048zM68.923 26.823c-.466 0-.858-.164-1.177-.49-.318-.326-.477-.748-.477-1.263 0-.489.151-.903.455-1.243.303-.34.681-.51 1.135-.51.474 0 .85.169 1.128.507.278.338.416.761.416 1.272l-.006.175h-2.628c.034.342.162.614.381.815.219.201.481.302.785.302.398 0 .746-.158 1.045-.474l.308.279c-.371.42-.825.629-1.364.629zm-1.154-1.954h2.134c-.03-.324-.136-.594-.317-.809-.181-.214-.429-.321-.74-.321-.282 0-.523.106-.724.318-.202.212-.319.483-.353.812zM71.268 26.745v-3.357h.494v1.448h1.91v-1.448h.494v3.357h-.494v-1.468h-1.91v1.468h-.494zM75.268 26.745v-3.357h.494v1.448h1.91v-1.448h.494v3.357h-.494v-1.468h-1.91v1.468h-.494zM79.267 26.745v-3.357h.494v1.26h.884c.384 0 .699.083.942.25.243.167.366.418.366.756 0 .334-.113.598-.34.795-.227.197-.53.296-.91.296h-1.436zm.494-.441h.897c.252 0 .447-.054.586-.163.139-.108.208-.266.208-.474 0-.191-.071-.337-.214-.439-.143-.102-.343-.152-.6-.152h-.878v1.227h.001zm2.788.441v-3.357h.494v3.357h-.494zM84.145 26.745v-3.357h.494v2.655l1.968-2.655h.481v3.357h-.494v-2.655l-1.974 2.655h-.474zm2.055-4.058c-.165.147-.364.22-.6.22-.235 0-.435-.073-.6-.22-.165-.147-.266-.338-.305-.572l.34-.071c.085.303.273.454.564.454.291 0 .478-.151.564-.454l.34.071c-.039.234-.141.425-.305.572zM90.112 26.745v-3.357h.494v1.934l1.814-1.934h.609l-1.386 1.455 1.423 1.902h-.583l-1.18-1.538-.699.727v.812h-.493v-.001zM93.585 26.797c-.128 0-.261-.018-.398-.052l.058-.428.237.045.231-.036c.06-.024.125-.086.196-.188.07-.102.125-.245.164-.432.038-.186.071-.45.099-.792.028-.342.041-.757.041-1.246v-.279h2.346v3.357h-.494v-2.915h-1.385v.078c0 .511-.02.946-.058 1.305-.038.36-.087.641-.144.845-.058.203-.138.362-.24.474-.103.112-.202.185-.298.217-.095.033-.213.048-.355.048zM97.663 26.745v-3.357h.494v2.655l1.967-2.655h.481v3.357h-.494v-2.655l-1.974 2.655h-.474zM101.707 26.745v-3.357h.494v1.448h1.909v-1.448h.494v3.357h-.494v-1.468h-1.909v1.468h-.494zM105.706 26.745v-3.357h.494v2.655l1.968-2.655h.48v3.357h-.494v-2.655l-1.974 2.655h-.474zM109.751 26.745v-3.357h.494v1.448h1.91v-1.448h.494v3.357h-.494v-1.468h-1.91v1.468h-.494zM113.751 26.745v-3.357h2.249v.442h-1.756v2.915h-.493z" fill="#333"/><defs><linearGradient id="a" x1="12.573" y1="27.766" x2="24.083" y2="13.763" gradientUnits="userSpaceOnUse"><stop offset=".028" stop-color="#A1D4C5"/><stop offset=".382" stop-color="#62BDA4"/><stop offset=".573" stop-color="#4CA98C"/><stop offset=".81" stop-color="#309676"/><stop offset=".948" stop-color="#238F6E"/></linearGradient><linearGradient id="b" y1="17.597" x2="21.657" y2="17.597" gradientUnits="userSpaceOnUse"><stop offset=".014" stop-color="#7698CC"/><stop offset=".382" stop-color="#4B6DB1"/><stop offset=".96" stop-color="#305893"/></linearGradient><linearGradient id="c" x1="28.16" y1="14.349" x2="11.252" y2="4.498" gradientUnits="userSpaceOnUse"><stop offset=".014" stop-color="#7698CC"/><stop offset=".382" stop-color="#4B6DB1"/><stop offset=".96" stop-color="#305893"/></linearGradient><linearGradient id="d" x1="18.79" y1="1.921" x2="5.135" y2="15.293" gradientUnits="userSpaceOnUse"><stop offset=".036" stop-color="#F2B065"/><stop offset=".093" stop-color="#F2A951"/><stop offset=".156" stop-color="#F2A341"/><stop offset=".221" stop-color="#F2A037"/><stop offset=".29" stop-color="#F29E34"/><stop offset=".937" stop-color="#E1821E"/></linearGradient></defs></svg>
